!!!COA:	Josquin des Prez
!!!CDT:	~1450-1521/08/27
!!!COM2: La Rue, Pierre de
!!!CDT2: ~1452///-1518/11/20/
!!!OPR:	Missa Sub tuum presidium
!!!ONM:	1
!!!OTL:	Kyrie
!!!AGN:	Mass; Kyrie
!!!SCT:	NJE 4.5
!!!SCA:	New Josquin Edition 4.5
!!!voices:	4
!!!voices-OPR:	4
**kern	**kern	**kern	**kern
*staff4	*staff3	*staff2	*staff1
*Ivox	*Ivox	*Ivox	*Ivox
*I"Bassus	*I"Tenor	*I"Altus	*I"Superius
*I'B	*I'T	*I'A	*I'S
*>[A,B,C]	*>[A,B,C]	*>[A,B,C]	*>[A,B,C]
*>A	*>A	*>A	*>A
*clefF4	*clefGv2	*clefGv2	*clefG2
*k[]	*k[]	*k[]	*k[]
*M3/1	*M3/1	*M3/1	*M3/1
*met(O)	*met(O)	*met(O)	*met(O)
=1-	=1-	=1-	=1-
0.r	0.r	1.e	1e
.	.	.	2g/
.	.	2c\	2a/
.	.	2d\	1b
.	.	[2e\	.
=2	=2	=2	=2
0.r	0.r	2e\]	1e
.	.	2A/	.
.	.	2c\	1r
.	.	2d\	.
.	.	[1e	2r
.	.	.	2e/
=3	=3	=3	=3
0.r	0.r	2e\]	2g/
.	.	2c\	2a/
.	.	2d\	1b
.	.	2e\	.
.	.	1A	2a/
.	.	.	[2cc\
=4	=4	=4	=4
0.r	0.r	2c\	4cc\]
.	.	.	4b\
.	.	2d\	2a/
.	.	2e\	2g/
.	.	2.f\	2.a/
.	.	4e\	4g/
.	.	2d\	2f/
=5	=5	=5	=5
0.r	0.r	2c\	2e/
.	.	2.d\	1d
.	.	4c\	.
.	.	2B\	1g
.	.	1A	.
.	.	.	2f#i/
=6	=6	=6	=6
0.r	0.r	0G	1g
.	.	.	2r
.	.	.	2g/
.	.	2r	2f/
.	.	[2g\	[2e/
=7	=7	=7	=7
0.r	0.r	2g\]	4e/]
.	.	.	4d/
.	.	2f\	2d/
.	.	2.e\	2r
.	.	.	2g/
.	.	4d\	.
.	.	2d\	2f/
.	.	[2g\	[2e/
=8	=8	=8	=8
0.r	0.r	2g\]	4e/]
.	.	.	4d/
.	.	2f\	2dd\
.	.	2.e\	2cc\
.	.	.	2.b\
.	.	4d\	.
.	.	2g\	.
.	.	.	4a/
.	.	2f\	2dd\
=9	=9	=9	=9
1r	0.r	4e\	2cc\
.	.	4d\	.
.	.	2g\	2.b\
1AA	.	2f\	.
.	.	.	4a/
.	.	2.e\	1a
2C/	.	.	.
.	.	4d\	.
2D\	.	2d\	2dd\
=10	=10	=10	=10
0.E	1E	2r	2cc\
.	.	2G/	2.b\
.	2G/	2B\	.
.	.	.	4a/
.	2A/	4c\	1a
.	.	4d\	.
.	1B	1e	.
.	.	.	2g#i/
=11	=11	=11	=11
1AA	0A	1c	0a
2C/	.	1r	.
2D\	.	.	.
[1E	2r	1r	1r
.	2E/	.	.
=12	=12	=12	=12
2E\]	2G/	1r	0.r
2C/	2A/	.	.
2D\	1B	1r	.
2E\	.	.	.
1AA	2A/	[1e	.
.	[2c\	.	.
=13	=13	=13	=13
2C/	4c\]	2e\]	1r
.	4B\	.	.
2D\	2A/	4d\	.
.	.	4c\	.
1E	1G	2B\	1e
.	.	1e	.
1r	1r	.	2g/
.	.	2c\	2a/
=14	=14	=14	=14
1r	2r	2d\	1b
.	2G/	2e\	.
1AA	2F/	0A	2a/
.	2.E/	.	2.cc\
2C/	.	.	.
.	4D/	.	4b\
2D\	2D/	.	2a/
=15	=15	=15	=15
0E	2r	2c\	0g
.	2.G/	4B\	.
.	.	4G/	.
.	.	2B\	.
.	4E/	.	.
.	2G/	2c\	.
2r	2F/	2d\	2r
2G\	[2E/	2e\	2g/
=16	=16	=16	=16
2F\	4E/]	2r	2a/
.	4D/	.	.
2.E\	2G/	2e\	2g/
.	2F/	2B\	2.b\
4D\	.	.	.
2G\	2.E/	2e\	.
.	.	.	4cc\
2F\	.	2A/	2a/
.	4D/	.	.
[2E\	[2G/	[2B\	2g/
=17	=17	=17	=17
4E\]	2G/]	4B\]	2.b\
4D\	.	4c\	.
2D\	2F/	2d\	.
.	.	.	4dd\
2r	2.E/	1G	2cc\
2G\	.	.	4b\
.	4D/	.	4g/
2F\	2D/	2r	2a/
[2E\	[2G/	2B\	4g/
.	.	.	4e/
=18	=18	=18	=18
4E\]	4G/]	2c\	1f
4D\	4F/	.	.
1D	2D/	2d\	.
.	1E	2B\	2e/
2C/	.	2c\	1e
1D	1F	2.A/	.
.	.	.	2d/
.	.	4B\	.
=19	=19	=19	=19
2r	[0.El	4c\	[0.el
.	.	4d\	.
2.AA/	.	4e\	.
.	.	4d\	.
.	.	4c\	.
4GG/	.	4B\	.
2GG/	.	1B	.
1AA	.	.	.
.	.	2A/	.
=20	=20	=20	=20
*^	*	*	*
0.EEl\	0.El/	0.E]	0.Bl	0.e]
*v	*v	*	*	*
!!LO:LB:i:g=z
=21||	=21||	=21||	=21||
*>B	*>B	*>B	*>B
*clefF4	*clefGv2	*clefGv2	*clefG2
*k[]	*k[]	*k[]	*k[]
*met(O)	*met(O)	*met(O)	*met(O)
*M2/1	*M2/1	*M2/1	*M2/1
*met(C|)	*met(C|)	*met(C|)	*met(C|)
!!section: Christe
!!!OMD: Christe
!	!	!	!
0E	1B	0r	0r
.	1c	.	.
=22	=22	=22	=22
1E	2B\	0r	0r
.	2G/	.	.
1F	2A/	.	.
.	2F/	.	.
=23	=23	=23	=23
2E\	2G/	0r	0r
2C/	2E/	.	.
2D\	2F/	.	.
2BB/	2D/	.	.
=24	=24	=24	=24
2C/	1E	0r	0r
2AA/	.	.	.
2BB/	1B	.	.
2GG/	.	.	.
=25	=25	=25	=25
1AA	1c	0r	0r
1E	2B\	.	.
.	2G/	.	.
=26	=26	=26	=26
1F	1A	0r	0r
2E\	2G/	.	.
2C/	2c\	.	.
=27	=27	=27	=27
1D	2B\	0r	0r
.	1A	.	.
[1C	.	.	.
.	4G/	.	.
.	4F/	.	.
=28	=28	=28	=28
1C]	2E/	[0e	0r
.	2.G/	.	.
1C	.	.	.
.	4F/	.	.
.	4E/	.	.
.	4D/	.	.
=29	=29	=29	=29
2C/	1C	0e]	1r
2.E\	.	.	.
.	1r	.	1b
4D\	.	.	.
4C/	.	.	.
4BB/	.	.	.
=30	=30	=30	=30
1AA	0r	0e	1cc
1r	.	.	2b\
.	.	.	2g/
=31	=31	=31	=31
0r	0r	1f	2a/
.	.	.	2f/
.	.	2e\	2g/
.	.	2c\	2e/
=32	=32	=32	=32
0r	0r	2d\	2f/
.	.	2B\	2d/
.	.	2c\	1e
.	.	2A/	.
=33	=33	=33	=33
0r	0r	2B\	1b
.	.	2G/	.
.	.	1A	1cc
=34	=34	=34	=34
2r	0r	1e	2b\
1E	.	.	2g/
.	.	1f	1a
2D\	.	.	.
=35	=35	=35	=35
2E\	0r	2e\	2g/
2A\	.	2c\	2cc\
2G\	.	1d	2b\
[2F\	.	.	[2a/
=36	=36	=36	=36
2F\]	0r	0c	2a/]
4E\	.	.	4g/
4D\	.	.	4f/
1C	.	.	2e/
.	.	.	[2g/
=37	=37	=37	=37
1BB	1G	2.d\	4g/]
.	.	.	4f/
.	.	.	4e/
.	.	4e\	4d/
[1AA	1A	2f\	1c
.	.	[2e\	.
=38	=38	=38	=38
1AA]	1c	2e\]	1r
.	.	4d\	.
.	.	4c\	.
1r	1B	1d	1g
=39	=39	=39	=39
0r	0A	0c	1a
.	.	.	1cc
=40	=40	=40	=40
1GG	1d	1G	1b
1AA	2.c\	2r	[1a
.	.	[2E/	.
.	4B\	.	.
=41	=41	=41	=41
2C/	4B\	2E/]	1a]
.	4A/	.	.
2D\	1A	2F/	.
1BB	.	2D/	1dd
.	2G/	2d\	.
=42	=42	=42	=42
0AA	0A	2f\	2.cc\
.	.	2.e\	.
.	.	.	4b\
.	.	.	4b\
.	.	4d\	4a/
.	.	4c\	[2a/
.	.	4A/	.
=43	=43	=43	=43
1r	1E	1B	2a/]
.	.	.	2g#i/
1AA	2r	1A	1a
.	2E/	.	.
=44	=44	=44	=44
2r	2F/	2r	0r
2BB/	2D/	2G/	.
2C/	2E/	2A/	.
2AA/	2C/	2F/	.
=45	=45	=45	=45
2BB/	1D	2G/	2r
2GG/	.	1G	2b\
1AA	1C	.	2cc\
.	.	2F#i/	2a/
=46	=46	=46	=46
1GG	2r	1G	2b\
.	2E/	.	2g/
1r	2F/	2r	1a
.	2D/	2d\	.
=47	=47	=47	=47
2r	2E/	2B\	1g
2C/	2G/	2c\	.
2D\	1F	2A/	1r
2BB/	.	[2B\	.
=48	=48	=48	=48
2C/	2E/	4B\]	1r
.	.	4A/	.
2AA/	1E	1A	.
1BB	.	.	2r
.	2D/	2G#i/	2b\
=49	=49	=49	=49
1AA	2E/	2A/	2cc\
.	2A/	2c\	2a/
1r	2G/	2d\	2b\
.	2E/	[2e\	2g/
=50	=50	=50	=50
2r	1F	4e\]	1a
.	.	4c\	.
2D\	.	2d\	.
2E\	1E	2B\	1g
2C/	.	4c\	.
.	.	4B\	.
=51	=51	=51	=51
2D\	0r	4A/	2r
.	.	4G/	.
2GG/	.	1G	2b\
1AA	.	.	2cc\
.	.	2F#i/	2a/
=52	=52	=52	=52
1GG	2r	1G	2b\
.	2B\	.	1g
1r	2c\	1r	.
.	2A/	.	2f#i/
=53	=53	=53	=53
1GG	2B\	0r	2g/
.	1G	.	2b\
1AA	.	.	2cc\
.	2F#i/	.	2a/
=54	=54	=54	=54
2GG/	2G/	1d	2b\
1G	2B\	.	2g/
.	2c\	2e\	1a
2F#i\	2A/	2f\	.
=55	=55	=55	=55
2G\	2B\	2d\	2g/
2GG/	1G	1e	2b\
1AA	.	.	2cc\
.	2F#i/	4d\	2a/
.	.	4c\	.
=56	=56	=56	=56
2GG/	0G	2.B\	2b\
2C/	.	.	2g/
.	.	4G/	.
2BB/	.	4B\	[1dd
.	.	4c\	.
2GG/	.	4d\	.
.	.	4e\	.
=57	=57	=57	=57
0D	0A	2f\	2dd\]
.	.	1g	4cc\
.	.	.	4b\
.	.	.	2.a/
.	.	2f#i\	.
.	.	.	4g/
=58	=58	=58	=58
0GGl	0Gl	0gl	0bl
!!LO:LB:i:g=z
=59||	=59||	=59||	=59||
*>C	*>C	*>C	*>C
*clefF4	*clefGv2	*clefGv2	*clefG2
*k[]	*k[]	*k[]	*k[]
*met(C|)	*met(C|)	*met(C|)	*met(C|)
*M3/1	*M3/1	*M3/1	*M3/1
*met(O|)	*met(O|)	*met(O|)	*met(O|)
!!section: Kyrie II
!!!OMD: Kyrie II
!	!	!	!
0.r	1r	0.r	0.r
.	1r	.	.
.	1D	.	.
=60	=60	=60	=60
0.r	1.G	0.r	1r
.	.	.	1r
.	2E/	.	.
.	2F/	.	1d
.	2G/	.	.
=61	=61	=61	=61
0.r	2.E/	0.r	1.g
.	4F/	.	.
.	2G/	.	.
.	1A	.	2e/
.	.	.	2f/
.	2G/	.	2g/
=62	=62	=62	=62
0.r	2A/	1A	2.e/
.	2c\	.	.
.	.	.	4f/
.	2.B\	1.d	2g/
.	.	.	1a
.	4A/	.	.
.	1B	.	.
.	.	2B\	2g#i/
=63	=63	=63	=63
0.r	2A/	2c\	1a
.	2D/	2d\	.
.	2.G/	2.B\	2r
.	.	.	2d/
.	4F/	4c\	.
.	4E/	2d\	2.g/
.	4D/	.	.
.	[2C/	[2e\	.
.	.	.	4f/
=64	=64	=64	=64
1r	2C/]	2e\]	4e/
.	.	.	4d/
.	2D/	2d\	1f
1r	2.E/	4c\	.
.	.	4B\	.
.	.	1B	2.e/
.	8F/L	.	.
.	8G/J	.	.
1D	1F	.	.
.	.	.	4d/
.	.	2A/	2d/
=65	=65	=65	=65
1.G	1E	2.B\	1e
.	.	4c\	.
.	1r	2d\	1r
2E\	.	1e	.
2F\	1r	.	1r
2G\	.	2d\	.
=66	=66	=66	=66
2.E\	0.r	2e\	0.r
.	.	1c	.
4F\	.	.	.
2G\	.	.	.
1A	.	4B\	.
.	.	4A/	.
.	.	1B	.
2G#\	.	.	.
=67	=67	=67	=67
1A	0.r	2r	0.r
.	.	2A/	.
2r	.	1.d	.
2D\	.	.	.
1G	.	.	.
.	.	2B\	.
=68	=68	=68	=68
2E\	0.r	2.c\	0.r
2F\	.	.	.
.	.	4d\	.
2G\	.	1B	.
1E	.	.	.
.	.	2E/	.
2AA/	.	[2A/	.
=69	=69	=69	=69
1.D	0.r	1A]	1r
.	.	2F/	1r
2BB/	.	2G/	.
2.C/	.	2A/	1a
.	.	2F/	.
4D\	.	.	.
=70	=70	=70	=70
2BB/	1r	1D	1.dd
1GG	.	.	.
.	1r	2G/	.
2BB/	.	1G	2b\
1AA	1A	.	2.cc\
.	.	2F#i/	.
.	.	.	4dd\
=71	=71	=71	=71
1GG	1.d	1G	2b\
.	.	.	1g
2G\	.	1r	.
1G	2B\	.	2b\
.	2.c\	1r	1a
2F#i\	.	.	.
.	4d\	.	.
=72	=72	=72	=72
1G	2B\	0d	2.g/
.	1G	.	.
.	.	.	4f/
1r	.	.	4e/
.	.	.	4d/
.	2B\	.	1g
1D	1A	1d	.
.	.	.	2f#i/
=73	=73	=73	=73
1.G	0G	2.B\	0g
.	.	4c\	.
.	.	2d\	.
2E\	.	1e	.
2F\	1r	.	2r
2G\	.	2d\	2d/
=74	=74	=74	=74
2C/	1r	1e	1.g
1E	.	.	.
.	1r	2B\	.
2C/	.	2e\	2e/
2D\	2r	2d\	2f/
2E\	2G/	2B\	2g/
=75	=75	=75	=75
0AA	1.c	2c\	1e
.	.	2.A/	.
.	.	.	2a/
.	.	4G/	.
.	2A/	2F/	1a
2r	2B\	1E	.
2C/	2c\	.	2g/
=76	=76	=76	=76
0.F	0A	1r	1.a
.	.	2r	.
.	.	2.A/	2.cc\
.	2r	.	.
.	.	4B\	4b\
.	2A/	2c\	4a/
.	.	.	4g/
=77	=77	=77	=77
2r	1.d	2A/	3f/
.	.	.	3g/
2D\	.	2.d\	.
.	.	.	3a/
2.G\	.	.	2d/
.	.	4G/	.
.	2B\	2G/	1g
4B\	.	.	.
2A\	2c\	2r	.
2D\	2d\	2A/	2f/
=78	=78	=78	=78
1G	2B\	2G/	2g/
.	1G	2.B\	2d/
1r	.	.	2g/
.	.	4c\	.
.	2D/	2d\	2f/
2r	2G/	4B\	4e/
.	.	2B\	2e/
2D\	2F/	.	.
.	.	4A/	4d/
=79	=79	=79	=79
0G	2G/	1.B	2e/
.	1E	.	2.g/
.	.	.	4f/
.	2G/	2G/	1e
1D	1F	1A	.
.	.	.	2d/
=80	=80	=80	=80
0.Gl	0.El	0.Bl	0.el
==	==	==	==
*-	*-	*-	*-
!!!RDF**kern: l=long note in original notation
!!!RDF**kern: i=editorial accidental
!!!RDF**kern: V=start of tuplet marker
!!!RDF**kern: Z=end of tuplet marker
!!!ENC:	Will Watson 02/09/2011
!!!END:	2012/01/21/
!!!EED:	Jesse Rodin
!!!EEV:	2012/06/24/
!!attribution-level@Jos: 5 (doubtful)
!!!ONB:	Translated from MusicXML and edited on 2012/06/24/ by Craig Sapp
!!muse2ps: T^@{OPR}^u^@{ONM}{. }@{OTL}^C^La Rue/Josquin?\n@{SCT}^i2I150v85,85,85,150Q16
